X:33
T:Widele, wedele...
B:Frau Nachtigall (Straburg - 1928)
Z:<anamnese@laposte.net> -- http://anamnese.fr.st
N:p.132
M:3/8
L:1/8
Q:1/4=120
K:G
d > d d | d > c B | c2 c | c > B A | G2 G | G A B |1 (A2d) | d3 :|2
   A3 | G2 z |]
G- G D | B > A G | A- A D | c > B A | B- B G | d > c B | (A2d) | d2 z |
d d d | d > c B | c c c | (c > B) A | G G G | (G A) B | A3 | G2 z |]
